assets/Man deaf/Dark/Flat/man_deaf_flat_dark.svg

<svg width="32" height="32" viewBox="0 0 32 32" fill="none" xmlns="http://www.w3.org/2000/svg">
<path d="M18.7881 2H30V19H22.3571C19.3922 19 17 16.6078 17 13.6429C17 12.8005 17.2022 12.0088 17.5391 11.3012C17.657 11.0654 17.657 10.779 17.5391 10.5431C17.2022 9.81873 17 9.02695 17 8.16779C17 7.04171 17.3354 6.01623 17.9057 5.14156L17.9095 5.13545C18.4823 4.25943 18.7855 3.23181 18.7855 2.18733V2.17049C18.7855 2.11345 18.7864 2.05662 18.7881 2Z" fill="black"/>
<path d="M30 16.84L30 30H12.6168C13.4643 26.9987 15.0819 24.2411 17.3443 22.0188C20.7216 18.7014 25.2659 16.8418 30 16.84Z" fill="#8B62BF"/>
<path d="M30 12C28.3431 12 27 13.3795 27 15.0811V18.9189C27 20.6205 28.3431 22 30 22V12Z" fill="#452829"/>
<path d="M21.75 11C23.2688 11 24.5 9.76878 24.5 8.25C24.5 6.73122 23.2688 5.5 21.75 5.5C20.2312 5.5 19 6.73122 19 8.25C19 9.76878 20.2312 11 21.75 11Z" fill="#4E3233"/>
<path d="M22.2592 2C21.8818 2.19 21.5634 2.48812 21.3406 2.85994C21.1178 3.23177 20.9997 3.66214 21 4.10138V4.2422L21.2271 10.1239C21.2485 11.251 21.4821 12.3624 21.9145 13.3943C22.347 14.4262 22.9696 15.3581 23.7467 16.1364C24.5238 16.9147 25.4399 17.5239 26.4422 17.929C27.4446 18.3341 28.5134 18.5272 29.5872 18.4969H30V14.9673L29.3227 14.3541L30 13.6542V11.9768L29.3574 10.1952L30 7.52856V2H22.2592Z" fill="#573739"/>
<path d="M15.5004 9.81502C15.4534 9.38403 15.066 9.07271 14.635 9.11968C14.204 9.16664 13.8927 9.5541 13.9396 9.98509C14.1011 11.4671 14.7386 12.8569 15.7565 13.946C16.0525 14.2628 16.5492 14.2796 16.866 13.9836C17.1827 13.6876 17.1996 13.1908 16.9035 12.8741C16.1174 12.0329 15.6251 10.9596 15.5004 9.81502Z" fill="#9B9B9B"/>
<path d="M12.5128 9.86112C12.4802 9.4288 12.1034 9.10472 11.6711 9.13726C11.2387 9.1698 10.9147 9.54665 10.9472 9.97897C11.1205 12.2818 12.0923 14.4519 13.6947 16.1148C13.9956 16.4269 14.4925 16.4361 14.8047 16.1353C15.1169 15.8345 15.1261 15.3375 14.8252 15.0253C13.4765 13.6258 12.6587 11.7993 12.5128 9.86112Z" fill="#9B9B9B"/>
<path d="M27.3208 6.87C27.1 6.48261 26.7877 6.1552 26.4111 5.91638C26.0346 5.67756 25.6053 5.5346 25.1608 5.5C24.4903 5.50203 23.8358 5.70397 23.2808 6.08C23.198 6.14191 23.1299 6.22138 23.0815 6.3127C23.0331 6.40403 23.0055 6.50494 23.0007 6.60819C22.996 6.71145 23.0141 6.81448 23.0539 6.90989C23.0937 7.00529 23.1541 7.09071 23.2308 7.16L24.0208 7.87C25.1408 7.48 26.1908 7.21 27.3208 6.87Z" fill="black"/>
<path d="M26 5.65002C25.4776 5.65221 24.9709 5.82839 24.5598 6.15074C24.1487 6.47309 23.8567 6.92323 23.73 7.43002C23.7133 7.49804 23.7123 7.56899 23.7271 7.63746C23.7419 7.70592 23.7722 7.77009 23.8156 7.82507C23.859 7.88006 23.9144 7.9244 23.9776 7.95472C24.0407 7.98504 24.11 8.00053 24.18 8.00002H27.92C27.9772 7.99924 28.0335 7.98623 28.0852 7.96186C28.1368 7.93749 28.1827 7.90232 28.2197 7.85874C28.2566 7.81515 28.2838 7.76415 28.2994 7.70917C28.315 7.6542 28.3186 7.59652 28.31 7.54002C28.2017 7.00707 27.9127 6.52787 27.4917 6.18348C27.0708 5.8391 26.5439 5.65065 26 5.65002V5.65002Z" fill="white"/>
<path d="M26.3501 6.09998C25.9523 6.09998 25.5707 6.25801 25.2894 6.53932C25.0081 6.82062 24.8501 7.20215 24.8501 7.59998C24.8348 7.73287 24.8348 7.86708 24.8501 7.99998H27.7501C27.7821 7.86901 27.7989 7.73479 27.8001 7.59998C27.8003 7.21066 27.6492 6.83652 27.3786 6.55661C27.108 6.2767 26.7392 6.11295 26.3501 6.09998Z" fill="#7D4533"/>
<path d="M27.21 7.59999C27.21 7.3719 27.1194 7.15316 26.9581 6.99188C26.7968 6.8306 26.5781 6.73999 26.35 6.73999C26.1219 6.73999 25.9032 6.8306 25.7419 6.99188C25.5806 7.15316 25.49 7.3719 25.49 7.59999C25.4923 7.73922 25.5265 7.87606 25.59 7.99999H27.11C27.1735 7.87606 27.2077 7.73922 27.21 7.59999V7.59999Z" fill="black"/>
<path d="M25.8401 7.27999C25.9892 7.27999 26.1101 7.15911 26.1101 7.00999C26.1101 6.86087 25.9892 6.73999 25.8401 6.73999C25.691 6.73999 25.5701 6.86087 25.5701 7.00999C25.5701 7.15911 25.691 7.27999 25.8401 7.27999Z" fill="white"/>
<path d="M30 7.5C29.8883 7.51545 29.7818 7.55778 29.6901 7.62382C29.5726 7.70854 29.4857 7.82785 29.4422 7.96435L28.5398 10.8208C28.4978 10.9573 28.4889 11.1016 28.5138 11.2421C28.5388 11.3826 28.597 11.5154 28.6836 11.63C28.7703 11.7445 28.8831 11.8377 29.013 11.9019C29.1429 11.9662 29.2863 11.9997 29.4319 12H30V7.5Z" fill="#3D2123"/>
<path d="M30 13.6271C29.9168 13.6309 29.8335 13.6325 29.75 13.632C28.9252 13.6384 28.1112 13.4311 27.378 13.0279C27.3271 13.0017 27.2696 12.9937 27.2141 13.005C27.1586 13.0163 27.108 13.0464 27.0697 13.0907C27.0314 13.1351 27.0075 13.1914 27.0015 13.2513C26.9955 13.3113 27.0077 13.3717 27.0363 13.4237C27.3293 13.9074 27.7311 14.305 28.2051 14.5804C28.6792 14.8557 29.2103 15 29.75 15C29.8336 15 29.917 14.9965 30 14.9897V13.6271Z" fill="#290118"/>
<path d="M20.6107 14.607C20.9638 13.8576 21.8575 13.5363 22.6069 13.8894C23.3563 14.2425 23.6776 15.1363 23.3245 15.8857L21.1933 20.4087C20.8402 21.1581 19.9465 21.4794 19.1971 21.1263C18.4477 20.7732 18.1264 19.8795 18.4795 19.13L20.6107 14.607Z" fill="#422426"/>
<path d="M20 17.5C19.6239 17.3746 19.2321 17.3597 18.8482 17.4313C18.0089 17.0893 17.0616 17.3194 16.3032 17.8409C14.8355 17.6715 13.935 18.6951 13.5 20L12 25L15.5852 26C15.6111 25.9377 15.6356 25.8748 15.6586 25.8114L18.5 27C18.8333 26.3333 19.688 24.96 20.44 24.8L21.28 24.49C22.0425 24.1894 22.659 23.6052 23 22.86L23.79 21.08C23.8608 20.9185 23.8977 20.7442 23.8985 20.5679C23.8993 20.3915 23.8639 20.2169 23.7946 20.0548C23.7252 19.8926 23.6234 19.7465 23.4953 19.6252C23.3673 19.504 23.2157 19.4103 23.05 19.35C22.7335 19.2349 22.3851 19.2442 22.0751 19.3759C21.9962 19.4095 21.9213 19.4503 21.8512 19.4977C21.7199 18.6988 21.2313 17.9105 20 17.5Z" fill="#573739"/>
<path d="M18.6473 26.3416L12.707 23.703C12.4546 23.5909 12.1591 23.7046 12.047 23.9569L11.43 25.3461C11.3179 25.5984 11.4316 25.8939 11.684 26.006L17.6243 28.6446C17.8767 28.7567 18.1722 28.643 18.2843 28.3906L18.9013 27.0015C19.0134 26.7491 18.8997 26.4537 18.6473 26.3416Z" fill="#774AA6"/>
<path d="M18.8737 30H8.04272L9.80211 25.9442C9.97174 25.5592 10.2844 25.2581 10.6719 25.1066C11.0593 24.9551 11.4901 24.9654 11.87 25.1354L18.0738 27.9082C18.4509 28.0827 18.7456 28.4005 18.8944 28.7933C19.0422 29.1831 19.0346 29.6159 18.8737 30Z" fill="#A17FD5"/>
<path d="M26.5755 4.02579C25.6867 3.89523 24.7786 4.04557 23.983 4.45499C23.7384 4.58085 23.436 4.48867 23.3075 4.2491C23.179 4.00953 23.2731 3.71329 23.5177 3.58743C24.5016 3.0811 25.6247 2.89516 26.7239 3.05663C26.9971 3.09677 27.1854 3.34626 27.1444 3.61388C27.1034 3.88151 26.8487 4.06593 26.5755 4.02579Z" fill="black"/>
<path d="M19.4719 23.0179C19.3449 23.0937 19.2084 23.1561 19.0667 23.2018C18.5029 23.3833 17.8245 23.31 17.272 22.7476C17.1819 22.6626 17.106 22.564 17.0468 22.4557C16.8802 22.5768 16.6912 22.6741 16.492 22.7382C15.9283 22.9197 15.2499 22.8465 14.6974 22.2841C14.572 22.1658 14.4741 22.0213 14.4107 21.8609C14.3465 21.6987 14.3192 21.5242 14.3307 21.3501C14.3419 21.1804 14.3897 21.0151 14.4709 20.8656L14.8461 20.0046C14.9012 19.878 15.0486 19.8201 15.1751 19.8753C15.3017 19.9304 15.3596 20.0777 15.3045 20.2043L14.9198 21.0871L14.9138 21.0977C14.865 21.1854 14.8362 21.2828 14.8296 21.383C14.823 21.4832 14.8387 21.5836 14.8756 21.677C14.9125 21.7704 14.9697 21.8543 15.043 21.9228L15.0513 21.9305C15.4556 22.3441 15.9308 22.3937 16.3388 22.2623C16.7653 22.125 17.0861 21.8015 17.1714 21.5139L17.1784 21.4903L17.1899 21.4684C17.3689 21.1288 17.4973 20.4357 17.3867 19.7666C17.2773 19.1054 16.9491 18.5344 16.2815 18.3233C16.1498 18.2817 16.0769 18.1412 16.1185 18.0096C16.1601 17.8779 16.3006 17.805 16.4322 17.8466C17.346 18.1355 17.7533 18.919 17.88 19.685C18.0034 20.4313 17.8744 21.2247 17.6434 21.68C17.5973 21.8239 17.5218 21.9627 17.424 22.091C17.4343 22.1061 17.4432 22.1227 17.4503 22.1405C17.4872 22.2339 17.5444 22.3178 17.6176 22.3863L17.6259 22.394C18.0302 22.8076 18.5054 22.8572 18.9134 22.7258C19.3399 22.5885 19.6608 22.265 19.746 21.9774L19.753 21.9538L19.7645 21.9319C19.9464 21.5869 20.1379 20.7832 20.026 19.9463C19.9159 19.1222 19.5181 18.3011 18.5608 17.847C18.436 17.7878 18.3829 17.6387 18.442 17.5139C18.4833 17.427 18.5682 17.3749 18.6581 17.3712C18.6821 17.3635 18.7078 17.3594 18.7344 17.3594C19.709 17.3594 20.4288 17.5802 20.9452 17.9492C21.4632 18.3193 21.7534 18.822 21.8973 19.3415C22.0402 19.8577 22.0401 20.3934 21.9794 20.8483C21.919 21.3008 21.7959 21.6937 21.6752 21.9272C21.5092 22.2486 21.1899 22.5668 20.8139 22.7826C20.437 22.999 19.9694 23.1314 19.5061 23.0281C19.4943 23.0254 19.4829 23.022 19.4719 23.0179ZM19.5664 17.9274C20.1551 18.4767 20.4298 19.1931 20.5216 19.8801C20.6438 20.7944 20.4483 21.6903 20.218 22.1436C20.1722 22.2864 20.0975 22.4243 20.0007 22.5517C20.1905 22.5248 20.3831 22.4534 20.5649 22.349C20.8734 22.172 21.1168 21.9188 21.231 21.6978C21.3188 21.5278 21.4289 21.1935 21.4838 20.7822C21.5383 20.3733 21.5356 19.9087 21.4154 19.475C21.2962 19.0446 21.0629 18.6478 20.6545 18.356C20.3859 18.1641 20.0318 18.0106 19.5664 17.9274Z" fill="#341A1C"/>
</svg>

<svg xmlns="http://www.w3.org/2000/svg" width="32" height="32" fill="none"><path fill="#000" d="M18.788 2H30v17h-7.643A5.35 5.35 0 0 1 17 13.643c0-.843.202-1.634.54-2.342a.857.857 0 0 0 0-.758A5.584 5.584 0 0 1 17 8.168c0-1.126.335-2.152.906-3.026l.004-.007a5.393 5.393 0 0 0 .875-2.948V2.17c0-.057.001-.113.003-.17Z"/><path fill="#8B62BF" d="M30 16.84V30H12.617A18.07 18.07 0 0 1 30 16.84Z"/><path fill="#452829" d="M30 12c-1.657 0-3 1.38-3 3.081v3.838C27 20.62 28.343 22 30 22V12Z"/><path fill="#4E3233" d="M21.75 11a2.75 2.75 0 1 0 0-5.5 2.75 2.75 0 0 0 0 5.5Z"/><path fill="#573739" d="M22.26 2c-.378.19-.697.488-.92.86-.222.372-.34.802-.34 1.241v.141l.227 5.882a8.905 8.905 0 0 0 .688 3.27 8.562 8.562 0 0 0 1.832 2.742 8.103 8.103 0 0 0 2.695 1.793 7.8 7.8 0 0 0 3.145.568H30v-3.53l-.677-.613.677-.7v-1.677l-.643-1.782L30 7.53V2h-7.74Z"/><path fill="#9B9B9B" d="M15.5 9.815a.785.785 0 0 0-1.56.17 6.895 6.895 0 0 0 1.817 3.961.785.785 0 1 0 1.147-1.072A5.325 5.325 0 0 1 15.5 9.815ZM12.513 9.861a.785.785 0 0 0-1.566.118 9.915 9.915 0 0 0 2.748 6.136.785.785 0 0 0 1.13-1.09 8.345 8.345 0 0 1-2.312-5.164Z"/><path fill="#000" d="M27.32 6.87a2.73 2.73 0 0 0-2.16-1.37 3.37 3.37 0 0 0-1.88.58.7.7 0 0 0-.05 1.08l.79.71c1.12-.39 2.17-.66 3.3-1Z"/><path fill="#fff" d="M26 5.65a2.35 2.35 0 0 0-2.27 1.78.461.461 0 0 0 .45.57h3.74a.4.4 0 0 0 .39-.46A2.36 2.36 0 0 0 26 5.65Z"/><path fill="#7D4533" d="M26.35 6.1a1.5 1.5 0 0 0-1.5 1.5 1.749 1.749 0 0 0 0 .4h2.9c.032-.131.049-.265.05-.4a1.5 1.5 0 0 0-1.45-1.5Z"/><path fill="#000" d="M27.21 7.6a.86.86 0 1 0-1.62.4h1.52a.91.91 0 0 0 .1-.4Z"/><path fill="#fff" d="M25.84 7.28a.27.27 0 1 0 0-.54.27.27 0 0 0 0 .54Z"/><path fill="#3D2123" d="M30 7.5a.693.693 0 0 0-.31.124.672.672 0 0 0-.248.34l-.902 2.857a.899.899 0 0 0 .144.809.93.93 0 0 0 .748.37H30V7.5Z"/><path fill="#290118" d="M30 13.627a4.842 4.842 0 0 1-.25.005 4.839 4.839 0 0 1-2.372-.604.249.249 0 0 0-.164-.023.26.26 0 0 0-.144.086.297.297 0 0 0-.033.333c.292.483.694.881 1.168 1.156a3.073 3.073 0 0 0 1.795.41v-1.363Z"/><path fill="#422426" d="M20.61 14.607a1.5 1.5 0 1 1 2.715 1.279l-2.132 4.523a1.5 1.5 0 1 1-2.713-1.279l2.13-4.523Z"/><path fill="#573739" d="M20 17.5a2.288 2.288 0 0 0-1.152-.069c-.84-.342-1.786-.112-2.545.41-1.468-.17-2.368.854-2.803 2.159L12 25l3.585 1c.026-.062.05-.125.074-.189L18.5 27c.333-.667 1.188-2.04 1.94-2.2l.84-.31A3.17 3.17 0 0 0 23 22.86l.79-1.78a1.29 1.29 0 0 0-.74-1.73 1.33 1.33 0 0 0-1.199.148c-.131-.8-.62-1.588-1.851-1.998Z"/><path fill="#774AA6" d="m18.647 26.342-5.94-2.639a.5.5 0 0 0-.66.254l-.617 1.39a.5.5 0 0 0 .254.659l5.94 2.639a.5.5 0 0 0 .66-.254l.617-1.39a.5.5 0 0 0-.254-.66Z"/><path fill="#A17FD5" d="M18.874 30H8.043l1.76-4.056c.169-.385.481-.686.869-.837a1.549 1.549 0 0 1 1.198.028l6.204 2.773c.377.175.672.492.82.885.148.39.14.823-.02 1.207Z"/><path fill="#000" d="M26.576 4.026a4.303 4.303 0 0 0-2.593.429.505.505 0 0 1-.675-.206.485.485 0 0 1 .21-.662 5.322 5.322 0 0 1 3.206-.53c.273.04.461.29.42.557a.499.499 0 0 1-.568.412Z"/><path fill="#341A1C" d="M19.472 23.018a1.977 1.977 0 0 1-.405.184 1.707 1.707 0 0 1-1.795-.454 1.178 1.178 0 0 1-.225-.292 1.982 1.982 0 0 1-.555.282 1.707 1.707 0 0 1-1.795-.454 1.176 1.176 0 0 1-.226-1.418l.375-.861a.25.25 0 1 1 .459.2l-.385.882-.006.01a.678.678 0 0 0 .129.826l.008.008c.405.413.88.463 1.288.331.426-.137.747-.46.832-.748l.007-.024.012-.022c.179-.34.307-1.032.197-1.701-.11-.662-.438-1.233-1.105-1.444a.25.25 0 1 1 .15-.476c.914.288 1.321 1.072 1.448 1.838.123.746-.006 1.54-.237 1.995a1.376 1.376 0 0 1-.219.411c.01.015.02.032.026.05a.678.678 0 0 0 .168.245l.008.008c.404.414.88.463 1.287.332.427-.137.748-.461.833-.749l.007-.023.012-.022c.181-.345.373-1.149.261-1.986-.11-.824-.508-1.645-1.465-2.099a.25.25 0 0 1 .097-.476.25.25 0 0 1 .076-.012c.975 0 1.695.221 2.211.59.518.37.808.873.952 1.392.143.517.143 1.052.082 1.507-.06.453-.183.846-.304 1.08-.166.32-.485.639-.861.855-.377.216-.845.348-1.308.245a.27.27 0 0 1-.034-.01Zm.094-5.09c.59.549.864 1.265.956 1.952.122.914-.074 1.81-.304 2.264-.046.142-.12.28-.217.408.19-.027.382-.099.564-.203.308-.177.552-.43.666-.651.088-.17.198-.505.253-.916a3.33 3.33 0 0 0-.069-1.307 1.983 1.983 0 0 0-.76-1.119c-.27-.192-.623-.345-1.089-.429Z"/></svg>
